X:1
T:A Beautiful Myth
C:zhiming@vmiis.com
M:4/4
L:1/8
Q: 1/4=80
K:C
V:1
A2e2B4 | Acc>de4 | A2a2gagd | fe-e4z2 |
A2a2gdef | e2d2c4 | A2e2d2>B2 | A6 AB |
cdecB2G2 | Acdee2AB | cdecB2G2 | Acd>cc2AB|
cdecB2G2 | Acdce2AB | cdecB2G2 | Acd>cc4|
